static/assets/template/assets/img/icons/essential/detailed/Depreciation.svg

<svg height="145" viewBox="0 0 150 145" width="150" xmlns="http://www.w3.org/2000/svg"><g fill="none" fill-rule="evenodd" transform="translate(2 2)"><g fill-rule="nonzero"><path d="m30.6 2.8v115.4h-23.4v-115.4c0-1.5 1.2-2.7 2.7-2.7h18c1.4-.1 2.7 1.1 2.7 2.7z"/><path d="m68.3 26.5v91.6h-23.4v-91.6c0-1.4 1.1-2.5 2.5-2.5h18.5c1.3.1 2.4 1.2 2.4 2.5z"/><path d="m105.8 65.6v-18.4c0-1.2-1-2.2-2.2-2.2h-19.1c-1.2 0-2.2 1-2.2 2.2v28.5"/><path d="m30.6 8.8v109.4h-23.4v-109.4c0-1.4 1.2-2.6 2.7-2.6h18c1.4 0 2.7 1.1 2.7 2.6z"/><path d="m68.3 31.3v86.9h-23.4v-86.9c0-1.3 1.1-2.3 2.5-2.3h18.5c1.3-.1 2.4 1 2.4 2.3z"/><path d="m105.8 68.4v-17.4c0-1.1-1-2.1-2.2-2.1h-19.1c-1.2 0-2.2.9-2.2 2.1v27.1"/><circle cx="108.1" cy="103.2" r="37.6"/><circle cx="110.3" cy="105.4" r="35.4"/><g transform="translate(90 86)"><path d="m13.4 32.4c-2.6 0-4.7-2.1-4.7-4.7s2.1-4.7 4.7-4.7h2.9l-12.8-12.8c-.9-.9-1.4-2.1-1.4-3.3 0-1.3.5-2.4 1.4-3.3s2.1-1.4 3.3-1.4c1.3 0 2.4.5 3.3 1.4l12.8 12.8v-2.9c0-2.6 2.1-4.7 4.7-4.7 1.3 0 2.4.5 3.3 1.4s1.4 2.1 1.4 3.3v14.2c0 1.3-.5 2.4-1.4 3.3s-2.1 1.4-3.3 1.4z"/><path d="m6.8 3.7c.8 0 1.6.3 2.3.9l15.4 15.4v-6.5c0-1.8 1.4-3.2 3.2-3.2.9 0 1.7.4 2.3.9.6.6.9 1.4.9 2.3v14.2c0 .8-.3 1.7-.9 2.3s-1.4.9-2.3.9h-14.2c-1.8 0-3.2-1.4-3.2-3.2s1.4-3.2 3.2-3.2h6.5l-15.4-15.4c-1.2-1.2-1.2-3.3 0-4.5.5-.6 1.4-.9 2.2-.9zm0-3c-1.7 0-3.2.6-4.4 1.8s-1.8 2.7-1.8 4.4.6 3.2 1.8 4.4l10.3 10.3c-3.1.4-5.5 3-5.5 6.1 0 3.4 2.8 6.2 6.2 6.2h14.2c1.7 0 3.2-.6 4.4-1.8s1.8-2.7 1.8-4.4v-14.2c0-1.7-.6-3.2-1.8-4.4s-2.7-1.8-4.4-1.8c-3.2 0-5.8 2.4-6.1 5.5l-10.3-10.3c-1.2-1.1-2.8-1.8-4.4-1.8z"/></g></g><path d="m141.6 86.1c2.6 5.1 4.1 11 4.1 17.1 0 20.8-16.9 37.6-37.6 37.6s-37.6-16.9-37.6-37.6 16.9-37.6 37.6-37.6c4.2 0 8.3.7 12 2" stroke-linecap="round" stroke-linejoin="round" stroke-width="3"/><path d="m127.6 71c1 .6 1.9 1.2 2.8 1.9" stroke-linecap="round" stroke-linejoin="round" stroke-width="3"/><path d="m.1 118.1h7 23.5 14.3 23.4 4.9" stroke-linecap="round" stroke-linejoin="round" stroke-width="3"/><path d="m7.1 23.7v-21c0-1.5 1.2-2.7 2.7-2.7h18c1.5 0 2.7 1.2 2.7 2.7v115.4h-23.4v-3.5" stroke-linecap="round" stroke-linejoin="round" stroke-width="3"/><path d="m7.1 104.3v-62.6" stroke-linecap="round" stroke-linejoin="round" stroke-width="3"/><path d="m68.3 26.5v91.6h-23.4v-91.6c0-1.4 1.1-2.5 2.5-2.5h18.5c1.3.1 2.4 1.2 2.4 2.5z" stroke-linecap="round" stroke-linejoin="round" stroke-width="3"/><path d="m105.8 65.6v-18.4c0-1.2-1-2.2-2.2-2.2h-19.1c-1.2 0-2.2 1-2.2 2.2v17.9" stroke-linecap="round" stroke-linejoin="round" stroke-width="3"/></g></svg>

<?xml version="1.0" encoding="UTF-8"?>
<svg width="150px" height="145px" viewBox="0 0 150 145" version="1.1" xmlns="http://www.w3.org/2000/svg" xmlns:xlink="http://www.w3.org/1999/xlink">
    <!-- Generator: Sketch 51.2 (57519) - http://www.bohemiancoding.com/sketch -->
    <title>Depreciation</title>
    <desc>Created with Sketch.</desc>
    <defs></defs>
    <g id="Page-1" stroke="none" stroke-width="1" fill="none" fill-rule="evenodd">
        <g id="Depreciation" transform="translate(2.000000, 2.000000)">
            <path d="M30.6,2.8 L30.6,118.2 L7.2,118.2 L7.2,2.8 C7.2,1.3 8.4,0.1 9.9,0.1 L27.9,0.1 C29.3,8.32667268e-16 30.6,1.2 30.6,2.8 Z" id="Shape" class="fill-neutral" fill-rule="nonzero"></path>
            <path d="M68.3,26.5 L68.3,118.1 L44.9,118.1 L44.9,26.5 C44.9,25.1 46,24 47.4,24 L65.9,24 C67.2,24.1 68.3,25.2 68.3,26.5 Z" id="Shape" class="fill-neutral" fill-rule="nonzero"></path>
            <path d="M105.8,65.6 L105.8,47.2 C105.8,46 104.8,45 103.6,45 L84.5,45 C83.3,45 82.3,46 82.3,47.2 L82.3,75.7" id="Shape" class="fill-neutral" fill-rule="nonzero"></path>
            <path d="M30.6,8.8 L30.6,118.2 L7.2,118.2 L7.2,8.8 C7.2,7.4 8.4,6.2 9.9,6.2 L27.9,6.2 C29.3,6.2 30.6,7.3 30.6,8.8 Z" id="Shape" class="fill-primary-200" fill-rule="nonzero"></path>
            <path d="M68.3,31.3 L68.3,118.2 L44.9,118.2 L44.9,31.3 C44.9,30 46,29 47.4,29 L65.9,29 C67.2,28.9 68.3,30 68.3,31.3 Z" id="Shape" class="fill-primary-200" fill-rule="nonzero"></path>
            <path d="M105.8,68.4 L105.8,51 C105.8,49.9 104.8,48.9 103.6,48.9 L84.5,48.9 C83.3,48.9 82.3,49.8 82.3,51 L82.3,78.1" id="Shape" class="fill-primary-200" fill-rule="nonzero"></path>
            <circle id="Oval" class="fill-neutral" fill-rule="nonzero" cx="108.1" cy="103.2" r="37.6"></circle>
            <circle id="Oval" class="fill-primary-500" fill-rule="nonzero" cx="110.3" cy="105.4" r="35.4"></circle>
            <g id="Group" transform="translate(90.000000, 86.000000)" fill-rule="nonzero">
                <path d="M13.4,32.4 C10.8,32.4 8.7,30.3 8.7,27.7 C8.7,25.1 10.8,23 13.4,23 L16.3,23 L3.5,10.2 C2.6,9.3 2.1,8.1 2.1,6.9 C2.1,5.6 2.6,4.5 3.5,3.6 C4.4,2.7 5.6,2.2 6.8,2.2 C8.1,2.2 9.2,2.7 10.1,3.6 L22.9,16.4 L22.9,13.5 C22.9,10.9 25,8.8 27.6,8.8 C28.9,8.8 30,9.3 30.9,10.2 C31.8,11.1 32.3,12.3 32.3,13.5 L32.3,27.7 C32.3,29 31.8,30.1 30.9,31 C30,31.9 28.8,32.4 27.6,32.4 L13.4,32.4 Z" id="Shape" class="fill-neutral"></path>
                <path d="M6.8,3.7 C7.6,3.7 8.4,4 9.1,4.6 L24.5,20 L24.5,13.5 C24.5,11.7 25.9,10.3 27.7,10.3 C28.6,10.3 29.4,10.7 30,11.2 C30.6,11.8 30.9,12.6 30.9,13.5 L30.9,27.7 C30.9,28.5 30.6,29.4 30,30 C29.4,30.6 28.6,30.9 27.7,30.9 L13.5,30.9 C11.7,30.9 10.3,29.5 10.3,27.7 C10.3,25.9 11.7,24.5 13.5,24.5 C13.5,24.5 13.5,24.5 13.5,24.5 L20,24.5 L4.6,9.1 C3.4,7.9 3.4,5.8 4.6,4.6 C5.1,4 6,3.7 6.8,3.7 Z M6.8,0.7 C5.1,0.7 3.6,1.3 2.4,2.5 C1.2,3.7 0.6,5.2 0.6,6.9 C0.6,8.6 1.2,10.1 2.4,11.3 L12.7,21.6 C9.6,22 7.2,24.6 7.2,27.7 C7.2,31.1 10,33.9 13.4,33.9 L27.6,33.9 C29.3,33.9 30.8,33.3 32,32.1 C33.2,30.9 33.8,29.4 33.8,27.7 L33.8,13.5 C33.8,11.8 33.2,10.3 32,9.1 C30.8,7.9 29.3,7.3 27.6,7.3 C24.4,7.3 21.8,9.7 21.5,12.8 L11.2,2.5 C10,1.4 8.4,0.7 6.8,0.7 Z" id="Shape" class="fill-primary"></path>
            </g>
            <path d="M141.6,86.1 C144.2,91.2 145.7,97.1 145.7,103.2 C145.7,124 128.8,140.8 108.1,140.8 C87.4,140.8 70.5,123.9 70.5,103.2 C70.5,82.5 87.4,65.6 108.1,65.6 C112.3,65.6 116.4,66.3 120.1,67.6" id="Shape" class="stroke-primary" stroke-width="3" stroke-linecap="round" stroke-linejoin="round"></path>
            <path d="M127.6,71 C128.6,71.6 129.5,72.2 130.4,72.9" id="Shape" class="stroke-primary" stroke-width="3" stroke-linecap="round" stroke-linejoin="round"></path>
            <polyline id="Shape" class="stroke-primary" stroke-width="3" stroke-linecap="round" stroke-linejoin="round" points="0.1 118.1 7.1 118.1 30.6 118.1 44.9 118.1 68.3 118.1 73.2 118.1"></polyline>
            <path d="M7.1,23.7 L7.1,2.7 C7.1,1.2 8.3,0 9.8,0 L27.8,0 C29.3,0 30.5,1.2 30.5,2.7 L30.5,118.1 L7.1,118.1 L7.1,114.6" id="Shape" class="stroke-primary" stroke-width="3" stroke-linecap="round" stroke-linejoin="round"></path>
            <path d="M7.1,104.3 L7.1,41.7" id="Shape" class="stroke-primary" stroke-width="3" stroke-linecap="round" stroke-linejoin="round"></path>
            <path d="M68.3,26.5 L68.3,118.1 L44.9,118.1 L44.9,26.5 C44.9,25.1 46,24 47.4,24 L65.9,24 C67.2,24.1 68.3,25.2 68.3,26.5 Z" id="Shape" class="stroke-primary" stroke-width="3" stroke-linecap="round" stroke-linejoin="round"></path>
            <path d="M105.8,65.6 L105.8,47.2 C105.8,46 104.8,45 103.6,45 L84.5,45 C83.3,45 82.3,46 82.3,47.2 L82.3,65.1" id="Shape" class="stroke-primary" stroke-width="3" stroke-linecap="round" stroke-linejoin="round"></path>
        </g>
    </g>
</svg>
